svg/black/dock.svg

<svg width="32" height="32" viewBox="0 0 32 32" version="1.1" xmlns="http://www.w3.org/2000/svg" xmlns:xlink="http://www.w3.org/1999/xlink"><title>svg/black/dock</title><desc>Created with Sketch.</desc><g id="black/dock" stroke="none" stroke-width="1" fill="none" fill-rule="evenodd"><path d="M16,32 C7.163444,32 0,24.836556 0,16 C0,7.163444 7.163444,0 16,0 C24.836556,0 32,7.163444 32,16 C32,24.836556 24.836556,32 16,32 Z M15.9311628,10.7711628 L15.9302326,10.7665116 C15.6214227,10.7310795 15.3108359,10.7133761 15,10.7134884 C10.6023751,10.7143376 7.0299515,14.2645776 7.0017098,18.6621119 C6.97346809,23.0596463 10.4999984,26.655477 14.8972497,26.7128084 C19.294501,26.7701397 22.9135815,23.2674735 23,18.8706977 C23,18.8483721 23,18.8260465 23,18.8037209 L23,6.14232558 C22.9823533,5.52387316 22.4759134,5.0316777 21.8572093,5.0316777 C21.2385052,5.0316777 20.7320653,5.52387316 20.7144186,6.14232558 L20.7144186,18.7181395 C20.7036287,21.858225 18.1531476,24.3970477 15.0130457,24.393451 C11.8729437,24.3898544 9.32828515,21.8451958 9.32468852,18.7050939 C9.32109188,15.564992 11.8599146,13.0145108 15,13.0037209 C15.3382583,13.0024665 15.6759786,13.0307915 16.0093023,13.0883721 L14.3023256,14.7953488 C13.8824206,15.2457857 13.8947316,15.9478796 14.3301702,16.3833182 C14.7656088,16.8187568 15.4677027,16.8310678 15.9181395,16.4111628 L19.5581395,12.7748837 C20.0045662,12.3284218 20.0045662,11.6046014 19.5581395,11.1581395 L15.9218605,7.52186047 L15.8837209,7.48372093 C15.4269943,7.04703066 14.7027368,7.06327336 14.2660465,7.52 C13.8293562,7.97672664 13.8455989,8.70098415 14.3023256,9.13767442 L15.9311628,10.7711628 Z" id="Combined-Shape" fill="#000" fill-rule="nonzero"/></g></svg>

<svg width="32" height="32" viewBox="0 0 32 32" xmlns="http://www.w3.org/2000/svg"><path d="M16 32C7.163 32 0 24.837 0 16S7.163 0 16 0s16 7.163 16 16-7.163 16-16 16zm-.069-21.229v-.004A8 8 0 1 0 23 18.87l-.001-.067V6.142a1.143 1.143 0 0 0-2.286 0v12.576a5.695 5.695 0 1 1-4.705-5.63l-1.707 1.707a1.143 1.143 0 0 0 1.616 1.616l3.64-3.636a1.143 1.143 0 0 0 0-1.617l-3.636-3.636-.038-.038a1.144 1.144 0 1 0-1.582 1.654l1.63 1.633z"/></svg>
